src/views/stay_fit/images/check.svg

<svg fill="none" height="50" viewBox="0 0 50 50" width="50" xmlns="http://www.w3.org/2000/svg"><path d="m19.8438 36.7857-10.31255-10.3125 2.94585-2.9459 7.3698 7.3615-.0031.0031 17.677-17.6771 2.9459 2.9459-17.6771 17.6791-2.9438 2.9438z" fill="#fff"/></svg>

<svg width="50" height="50" viewBox="0 0 50 50" fill="none" xmlns="http://www.w3.org/2000/svg">
<path d="M19.8438 36.7857L9.53125 26.4732L12.4771 23.5273L19.8469 30.8888L19.8438 30.8919L37.5208 13.2148L40.4667 16.1607L22.7896 33.8398L19.8458 36.7836L19.8438 36.7857Z" fill="white"/>
</svg>
